X: 14846
T: Garrett Barry's
R: jig
M: 6/8
K: Dmixolydian
|:DEF ~G3|AGA c2(3A/B/c/|dcA d2e|=fed cAG|
FEF GFG|AGA cde|dcA GEA|1 DED A,B,^C:|2 DED D2d||
|:dcA d2e|=fag efd|dcA c2d|(3efg c edc|
[1dcA d2e|=fag efd|dcA GEA|DED D2d:|
[2dcA _Beg|=fdA G_Be|dcA GEA|DED A,B,^C||

